assets/Camel/Flat/camel_flat.svg

<svg width="32" height="32" viewBox="0 0 32 32" fill="none" xmlns="http://www.w3.org/2000/svg">
<path d="M13.34 18H16.34L18.9326 29.6959C18.9672 29.852 18.8484 30 18.6885 30H16.2007C16.0835 30 15.982 29.9185 15.9566 29.8041L13.34 18Z" fill="#D3883E"/>
<path d="M25.38 19.27H22.38L20.0675 29.6959C20.0328 29.852 20.1516 30 20.3115 30H22.7994C22.9166 30 23.0181 29.9186 23.0434 29.8042L25.38 19.27Z" fill="#D3883E"/>
<path d="M30 12.25C29.99 12.08 29.91 11.91 29.79 11.79C29.76 11.76 24.75 6.39 24.67 6.3C23.85 5.49 22.73 5 21.5 5C19.85 5 18.41 5.89 17.63 7.21C17.63 7.21 13.96 12.51 13.93 12.56V12.57C13.75 12.85 13.43 13.04 13.07 13.04C12.52 13.03 12.08 12.56 12.08 12.01L12 5V3.27C12 3.12 11.87 3 11.72 3C10.77 3 10 3.77 10 4.73C10 4.88 9.87 5 9.72 5H5.51C3.57 5 2 6.57 2 8.51V8.88C2 9.5 2.5 10 3.12 10H6.06C6.58 10 7 10.42 7 10.94V13.82C7 16.49 8.47 18.83 10.64 20.07C10.86 20.19 11 20.42 11 20.68V29.5C11 29.78 11.22 30 11.5 30H13.5C13.78 30 14 29.78 14 29.5V21H22C22.78 21 23.51 20.82 24.17 20.51C24.34 21.39 24.62 22.24 25.02 23.04L25.87 24.75C25.96 24.91 26 25.1 26 25.28V29.5C26 29.78 26.22 30 26.5 30H28.5C28.78 30 29 29.78 29 29.5V12.94C29.45 13.15 30.03 12.82 30 12.25Z" fill="#F3AD61"/>
<path d="M7.5 8.38C7.22 8.38 7 8.15 7 7.88V7C7 6.72 7.22 6.5 7.5 6.5C7.78 6.5 8 6.72 8 7V7.88C8 8.15 7.78 8.38 7.5 8.38Z" fill="#1C1C1C"/>
<path d="M3.5 9.26001C3.22 9.26001 3 9.03001 3 8.76001V8.32001C3 8.04001 3.22 7.82001 3.5 7.82001C3.78 7.82001 4 8.04001 4 8.32001V8.76001C4 9.03001 3.78 9.26001 3.5 9.26001Z" fill="#D3883E"/>
</svg>

<svg xmlns="http://www.w3.org/2000/svg" width="32" height="32" fill="none"><path fill="#D3883E" d="M13.34 18h3l2.593 11.696a.25.25 0 0 1-.244.304H16.2a.25.25 0 0 1-.244-.196L13.34 18ZM25.38 19.27h-3l-2.313 10.426a.25.25 0 0 0 .244.304H22.8a.25.25 0 0 0 .244-.196L25.38 19.27Z"/><path fill="#F3AD61" d="M30 12.25a.728.728 0 0 0-.21-.46c-.03-.03-5.04-5.4-5.12-5.49-.82-.81-1.94-1.3-3.17-1.3-1.65 0-3.09.89-3.87 2.21 0 0-3.67 5.3-3.7 5.35v.01c-.18.28-.5.47-.86.47-.55-.01-.99-.48-.99-1.03L12 5V3.27c0-.15-.13-.27-.28-.27-.95 0-1.72.77-1.72 1.73 0 .15-.13.27-.28.27H5.51C3.57 5 2 6.57 2 8.51v.37C2 9.5 2.5 10 3.12 10h2.94c.52 0 .94.42.94.94v2.88c0 2.67 1.47 5.01 3.64 6.25.22.12.36.35.36.61v8.82c0 .28.22.5.5.5h2c.28 0 .5-.22.5-.5V21h8c.78 0 1.51-.18 2.17-.49.17.88.45 1.73.85 2.53l.85 1.71c.09.16.13.35.13.53v4.22c0 .28.22.5.5.5h2c.28 0 .5-.22.5-.5V12.94a.71.71 0 0 0 1-.69Z"/><path fill="#1C1C1C" d="M7.5 8.38c-.28 0-.5-.23-.5-.5V7c0-.28.22-.5.5-.5s.5.22.5.5v.88c0 .27-.22.5-.5.5Z"/><path fill="#D3883E" d="M3.5 9.26c-.28 0-.5-.23-.5-.5v-.44c0-.28.22-.5.5-.5s.5.22.5.5v.44c0 .27-.22.5-.5.5Z"/></svg>
